img/OnlyUP-White.svg

<svg xmlns="http://www.w3.org/2000/svg" viewBox="0 0 183.9 129.3"><defs><style>.cls-1{fill:#fff;}</style></defs><title>Recurso 3OnlyUP</title><g id="Capa_2"><g id="UPlogoSVG"><path id="P" d="M0 21.8h14.3v74.6a19.44 19.44 0 0 0 5.6 14.3c4.6 4.6 11.2 6.8 19.9 6.8s15.3-2.3 19.9-6.8a19.44 19.44 0 0 0 5.6-14.3V21.8h14.3V97c0 9.1-2.9 16.6-8.7 22.4-6.6 6.6-17 9.9-31.1 9.9s-24.4-3.3-31.1-9.9C2.9 113.6 0 106.2 0 97zm18-8.1V0h14.3v13.7zm29.8 0V0h14.3v13.7z" class="cls-1"/><path id="U" d="M103.1 21.8h49.7c9.1 0 16.6 2.9 22.4 8.7s8.7 13.9 8.7 24.2-2.7 18.2-8.1 23.6-13 8.1-23 8.1h-35.4V128h-14.3zm14.3 11.8v41h32.3c5.8 0 10.3-1.7 13.7-5 3.7-3.7 5.6-8.7 5.6-14.9 0-7-1.7-12.2-5-15.5a19.44 19.44 0 0 0-14.3-5.6z" class="cls-1"/></g></g></svg>

<svg xmlns="http://www.w3.org/2000/svg" viewBox="0 0 183.9 129.3"><defs><style>.cls-1{fill:#fff;}</style></defs><title>Recurso 3OnlyUP</title><g id="Capa_2" data-name="Capa 2"><g id="UPlogoSVG"><path id="P" class="cls-1" d="M0,21.8H14.3V96.4a19.44,19.44,0,0,0,5.6,14.3c4.6,4.6,11.2,6.8,19.9,6.8s15.3-2.3,19.9-6.8a19.44,19.44,0,0,0,5.6-14.3V21.8H79.6V97c0,9.1-2.9,16.6-8.7,22.4-6.6,6.6-17,9.9-31.1,9.9S15.4,126,8.7,119.4C2.9,113.6,0,106.2,0,97Zm18-8.1V0H32.3V13.7Zm29.8,0V0H62.1V13.7Z"/><path id="U" class="cls-1" d="M103.1,21.8h49.7c9.1,0,16.6,2.9,22.4,8.7s8.7,13.9,8.7,24.2-2.7,18.2-8.1,23.6-13,8.1-23,8.1H117.4V128H103.1Zm14.3,11.8v41h32.3c5.8,0,10.3-1.7,13.7-5,3.7-3.7,5.6-8.7,5.6-14.9,0-7-1.7-12.2-5-15.5a19.44,19.44,0,0,0-14.3-5.6Z"/></g></g></svg>
